X: 3016
T: Battle Of The Braes, The
R: barndance
M: 4/4
K: Dmajor
dB|"D"ABde f2ed|"Em"efed B2dB|"D"ABde fdaf|"A"e4 e2fg|
"D"a2~a2 f2ed|"Em"BcdB "D"A2de|"D"f2af "A"edef|"D"d4 d2:|
fg|"D"a2~a2 fade|"Em"fe~e2 "D"f2df|"D"a2~a2 fdaf|"A"e4 e2fg|
"D"a2~a2 f2ed|"Em"BcdB "D"A2de|"D"f2af "A"edef|"D"d4 d2fg|
"D"a2~a2 fade|"Em"fe~e2 "D"f2df|"D"a2~a2 fdaf|"A"e4 egfe|
"D"defe d3A|"Em"BABd "D"A2de|"D"f2af "A"edef|"D"d4 d2||

